X: 7066
T: Choulis
R: jig
M: 6/8
K: Gmajor
B2G GdB|c2A Adc|B2G GdB|cAG FGA|B2G B2G|c2A c2A|ded cAF|1 G3 G2A:|2 G3 Gag||
fed efg|afd cAF|gfg bag|afd d2e|fed efg|afd cAF|d2d cAF|1 G3 G2g|2 G3 G2B||
d2d gdB|d2d gdB|cBc ABc|ABc ABc|d2d gdB|d2d gdB|BdB cAF|1 GAF GBc:|2 GAF G2A||

